X: 1
T:Norwegian Schottische
R:Schottische
M:C
O:France
K:D
DFED ADFA|DFAd f4|1 f2ed e2dc| B2AG F2A2:|2\
f2ed cABc| dfec d4|\
K:C
|:A4 G2G2|F2 [EG][DF][^C2E2]A,2|DEFG A2GF|EFGA F4|\
A2FA G2EG|F2 [DE][DF][E2^C2]A,2| DEFG A2GF|EFGAD4:|
